X:1
T:Rimsky-Korsakov Harmonic Exercises, Strict Melodic Figuration
T:Rimsky-Korsakov Harmonic Exercises, Strict Melodic Figuration 
T:"Practical Manual of Harmony" (1885)
%%score { ( 1 2 ) | ( 3 4 ) }
L:1/8
Q:1/4=80
M:4/4
K:C
V:1 treble nm="Piano" snm="Pno."
V:2 treble 
V:3 bass 
V:4 bass 
V:1
"^There is no possibility\nfor downward suspension here:\n""^Melodic figuration is the development of\na chord progression using passing tones,\nauxiliary tones, and suspensions.\nMelodic figuration exists in a strict\nand free style. This Chapter sets out\nthe rules of \nstrict style\n.\n" (c4 !breath!d4) |] %1
"^The possibility appears\nif the tenor jumps to\na suitable chord tone:\n" (c4 !breath!d4) |] %2
"^Here you can add diatonic passing tones:" (c4 !breath!B4) |] (c4 !breath!B4) |] %4
 (c4 !breath!B4) |] %5
"^Passing and auxiliary tones can be applied\non a \nstrong bit\n, if no new chord appears\non that bit.\n""^Good:" (cedc !breath!B4) |] %6
[M:6/4]"^Good:" (cBc dcB !breath!c6) |] %7
[M:2/4]"^The tone in which such dissonance\nis resolved may be in another voice,\nbut at a distance of at least an octave\nand necessarily from below.\n""^Bad (a):" !breath!G4 |] %8
"^This tone should not be\nthe third of a chord.\n""^Bad (b):" (Ac B!breath!A) |] %9
"^Good (a):""_Examples (a) and (b) can be corrected by diverting\nthe impeding voice to a different chord tone.\n" !breath!G4 |] %10
"^Good (b):" (Ac B!breath!A) |] %11
[M:4/4]"^The following examples are considered parallel fifths and octaves, and are certainly forbidden." (e4 !breath!d4) |] %12
 (A4 !breath!G4) |] (BAGB !breath!c4) |] %14
"_In contrast, fifths and octaves\non weak bits are allowed.\n" (A4 !breath!G4) |] %15
 (BGAB !breath!c4) |] %16
"^The voice that forms the suspension can be decorated with an insertion of a chord tone or auxiliary tones." (G4 c4- | %17
 c2 d2 !breath!B4) |] (G4 c4- | c2 BA !breath!B4) |] (G4 c4- | cBdc !breath!B4) |] (G4 d4- | %23
 d2 B2 !breath!c4) |] (B8- | B2 d2 !breath!c4) |] %26
[M:2/4]"^In strict style, the following figures should be avoided:""^Repeated auxiliary tones." (cd cd | %27
 ed e!breath!d) |]"^Repeated chord tones." (ce c!breath!e) |] (GD G!breath!D) |] %30
[M:6/4]"^Only chord tones (this is called\nharmonic figuration).\n" (cegc' bgdB cea!breath!c) |] %31
"^Jump after the resolution\nof the suspension.\n" (d4- d2 c2 !breath!G4) |] %32
[M:4/4]"^Jump down after\na short leading-tone.\n" (d4 !breath!c4) |] %33
[M:6/4]"^A repetition of the tone\nin which the suspension was resolved.\n" (d4- d2 c2 !breath!c4) |] %34
"^Correction:" (d4- d2 cB !breath!c4) |] %35
[K:G][M:4/4]"^Example by Rimsky-Korsakov (harmonization the melody with melodic figuration in the 3 lower voices):"[Q:1/2=50] z4"""""_G:""^passing tones""^suspensions""^(""^)""^," (G4 | %36
"" G4"" d4 |"" B4"" A4 |"""_G:""_D:""_{" B4[Q:1/2=50] ^c4[Q:1/2=41] | %39
""[Q:1/2=35] !breath!!fermata!d4[Q:1/2=29]""[Q:1/2=50]"_G:" e4 |"""_G:" d4"""" B4 | %41
"""""" A4"""" G4 |""[Q:1/2=50] B4""""[Q:1/2=38]"^.8" A4[Q:1/2=35][Q:1/2=43]"^.3" | %43
""[Q:1/2=31]"^.4" !breath!!fermata!G4""[Q:1/2=50] A4 |"""_G:""_D:""_{" B4 B4 | A4 d4 | %46
 d4[Q:1/2=50] ^c4[Q:1/2=41] | %47
""[Q:1/2=35]"_D:""_G:""_{" !breath!!fermata!d4[Q:1/2=29]""[Q:1/2=50] B4 |"""""_G:" c4"""" B4 | %49
"""" A4"" G4 |""[Q:1/2=50] G4[Q:1/2=41]""""[Q:1/2=36]"^.6" F4[Q:1/2=32] | %51
""[Q:1/2=20] !fermata!G4)[Q:1/2=10] z4 |] %52
V:2
 (E4 G4) |] (E4 G4) |] (E4 D4) |] (EFGE D4) |] (E4 D4) |] (E4 D4) |][M:6/4] (E6 G6) |] %7
[M:2/4] (CE DC) |] C4 |] (CE DC) |] (C2 F2) |][M:4/4] (EDEC DCDB,) |] (DCDA, CB,CG,) |] (G,4 C4) |] %14
 (CEDC B,DCB,) |] (G,4 C4) |] (E8 | G8) |] (E8 | G8) |] (E8 | G8) |] (G4 F4 | E8) |] (D4 F4 | %25
 E8) |][M:2/4] x4 | x4 |] x4 |] x4 |][M:6/4] x12 |] (G4 G4 D4) |][M:4/4] (BdcB G4) |] %33
[M:6/4] (G4 G4 A4) |] (G4 G4 A4) |][K:G][M:4/4] z4 (E4 | D2 G2 A4- | A2 G2- G2 F2 |"""" G8- | %39
"" G2"^.8""_D:""_{" !fermata!F2 G4- | G2 F2 G2 D2 | E2 DC B,2 C2 | D4 D2 C2 | B,4 D4 | %44
"" D4"" D2"" ^C2 |"" D2 E2"" F4- |"" F2 E2"" A2"" G2- |"" G2"^.8" !fermata!F2 D4 | E4 D4 | %49
 D3 C B,4 | A,2"^.9" E2 D2 C2- | C2 !fermata!B,2) z4 |] %52
V:3
 (G,4 B,4) |] (G,2 C2- C2 B,2) |] G,8 |] G,8 |] G,8 |] G,8 |][M:6/4] (G,6 C6) |][M:2/4] C4 |] %8
 A,4 |] (C2 G,2) |] (A,2 C2) |][M:4/4] z8 |] z8 |] z8 |] z8 |] z8 |] (C8 | D8) |] (C8 | D8) |] %20
 (C8 | D8) |] (B,8 | G,8) |] (G,8 | G,8) |][M:2/4] z4 | z4 |] z4 |] z4 |][M:6/4] z12 |] %31
 (F4 E4 D4) |][M:4/4] (G4 E4) |][M:6/4] (F4 E4 E4) |] (F4 E4 E4) |][K:G][M:4/4] z4 (C4 | B,4 A,4 | %37
 D4 D4 | D4 E2 G,2 | A,4 C2 B,2 | A,4 G,4 | G,2 F,2 G,4 | G,4 F,4 | G,4 F,4 | G,4 G,4 | %45
 A,2 G,2 F,2 A,2 | B,4 A,4 | A,4 G,4 | G,2 A,2 B,2 G,2- | G,2 F,2 G,2 F,2 | E,4 A,4 | G,4) z4 |] %52
V:4
 (C,4 G,4) |] (C,4 G,4) |] (C,4 G,4) |] (C,2 E,2 G,4) |] (C,D,E,F, G,4) |] (C,4 G,4) |] %6
[M:6/4] (C,6 E,6) |][M:2/4] E,4 |] F,4 |] E,4 |] F,4 |][M:4/4] x8 |] x8 |] x8 |] x8 |] x8 |] (C,8 | %17
 G,8) |] (C,8 | G,8) |] (C,8 | G,8) |] (G,4 G,,4 | C,8) |] (G,,8 | C,8) |][M:2/4] x4 | x4 |] x4 |] %29
 x4 |][M:6/4] x12 |] (B,4 C4 B,4) |][M:4/4] (G,4 C4) |][M:6/4] (B,4 C4 A,4) |] (B,4 C4 A,4) |] %35
[K:G][M:4/4] z4 (C,2 E,2 | G,4- G,2 F,2 | G,4 D,4 | G,2 F,2 E,4 | D,4 C,4 | D,4 G,,2 B,,2 | %41
 C,2 D,2 E,4 | B,,2 C,2 D,4 | E,4 D,4 | G,2 F,2 E,4 | F,2 E,2 D,4 | G,,4 A,,4 | D,4 G,2 F,2 | %48
 E,2 F,2 G,2 B,,C, | D,4 E,2 D,2 | C,4 D,4 | G,,4) z4 |] %52

